X:1
T:Venus gibt mir
T:Giovanni Giacomo Gastoldi
T:Source : Tricinia---Johann-Jacob Gastoldi und anderer Autorn---Nürnberg---P.Kauffmann---1607. Editor : André Vierendeels (12/03/17).
T:Notes Original clefs : G2, G2, C3 Text Middle German by Valentin Hauszmann
T:Venus gibt mir
T:©
T:©
C:Giovanni Giacomo Gastoldi
Z:©
%%score [ 1 2 3 ]
L:1/8
Q:1/4=101
M:4/4
K:C
V:1 treble nm="Soprano 1" snm="S 1"
V:2 treble nm="Soprano 2" snm="S 2"
V:3 treble-8 nm="Tenor" snm="T"
V:1
"^1)" z8 | d4 B3 c | d2 B2 A4 | B4 z2 d2 | d2 c2 d2 e2 | f4 e4 :: c3 d e4 | d2 c2 B4 | B4 z2 d2 | %9
w: |Ve- nus gibt|mir zu schaf-|fen, mit|ih- re, schar- pffen|Waf- fen,|die mein Hertz|tieff ver- wun-|den, von|
w: |Den schmertz fühl|ich ohn mas-|sen, der|mir kein ruh will|las- sen,|drumb ich rath|thu be- ge-|ren, bey|
 G2 g3 f e2 | d2 c2 B2 e2 | d2 c2 z2 g2- | gf e2 d2 d2- | dc B2 A4 | B8 :| %15
w: euch kompt es al-|lein, hab ich be-|fun- den, kompt|_ es al- lein, hab|_ ich be- fun-|den.|
w: euch steht es al-|lein, so ihr wolt|weh- ren, steht|_ es al- lein, so|_ ihr wolt weh-|ren.|
V:2
"^2)""^1)" z4 G4 | B3 c d2 G2 | A2 G4 ^F2 | G2 B2 B2 B2 | A6 c2- | c2 B2 c4 :: e3 f g4 | f2 e2 d4 | %8
w: Ve-|nus gibt mir zu|schaf- * *|fen, mit ih- ren|schar- pffen|_ Waf- fen,|die mein Hertz|tieff ver- wun-|
w: Auff|gna- de musz ich|se- * *|hen, weisz nicht was|wirdt sche-|* * hen,|ach möcht eur|gunst mich la-|
 d2 g2 d2 g2- | gf e2 d2 c2 | B2 e2 d2 c2 | z2 c2 B2 e2- | ed c2 B2 G2 | A2 G4 ^F2 | G8 :| %15
w: den, von euch kompt|_ es al- lein, hab|ich be- fun- den,|von euch kompt|_ es al- lein, hab|ich be- fun-|den.|
w: ben, in euch kan|_ ich al- lein freud|und trost ha- ben,|in euch kan|_ ich al- lein freud|und trost ha-|ben.|
V:3
"^1)""^4)""^3)" g4 e3 f | g6 e2 | d8 | G2 g2 g2 g2 | f6 e2 | d4 c4 :: c2 c2 c4 | d2 e2 g4 | g8- | %9
w: Ve- nus gibt|mir zu|schaf-|fen, mit ih- ren|schar- pffen|Waf- fen,|die mein Hertz|tieff ver- wun-|den,|
w: Jung- frau ihr|habt ver-|nom-|men, in was ge-|fahr ich|kom- men,|wer- det ihr|hülff mir sen-|den,|
 g8 | z2 c2 G2 c2- | cB A2 G2 c2- | c2 c2 G4 | d8 | G8 :| %15
w: _|von euch kompt|_ es al- lein, hab|_ ich be-|fun-|den.|
w: _|mit euch will|_ ich al- lein mein|_ le- ben|end-|ren.|

